X:1
T:Ne Irascaris duo in standard notation
T:Ne irascaris
T:attributed to William Byrd
T:nalvi.org
T:Duo for Two Viols from the John Merro collection (1673)
%%score ( 1 2 ) ( 3 4 )
L:1/8
Q:1/4=100
M:2/2
K:C
V:1 bass nm="Viol 1 - ffeff"
V:2 bass 
V:3 bass nm="Viol 2 - ffefh"
V:4 bass 
V:1
 C,8 | C,8 | C,8 | %3
w: 0|||
"^Pages 163 - 165 in Book 1 / Pages 188 - 190 in Book 2 - Plainway / Plainway w/dropped C" C,4 C,4 | %4
w: |
 C,8 | C,8 | D,8 | D,4 D,4 | D,8 | D,4"^(No tie in original)" F,4- | F,2 E,2 C,4 | %11
w: |||||||
 [G,,D,]4 [D,G,]4 |"^A" [E,G,C]8 | [C,G,C]8 | C8 | C4 C4 | C8 | C8 | D8 | D4 D4 | D8 |"^B" D4 D4- | %22
w: |||||||||||
 D2 E2 C4 | [CD]4 [B,D]4 |"^C" [C,E,CE]8 | [C,G,]4 [E,C]4 | [F,C]4 [A,F]4 | [F,A,]4 F4 | %28
w: ||||||
 [A,F]2 G,2 [G,_B,D]4 | [G,A,D]4 [^F,A,D]4 |"^D" [G,B,D]4 D,2 E,2 | %31
w: |||
 F,2 G,2"^(No slurs in oriinal)" C2 x2 | D2 x2 [CE]4 | [CF]4 [B,F]4 |"^E" [CE]4 G,4 | %35
w: ||||
 [C,G,]4 [CE]4 | [C,G,]4 [CE]4 | [A,F]2 C2 [B,F]2 A,2 | [B,D]4 G,4 | [G,B,D]4 E4 | %40
w: |||||
 [A,E]2 D2 C2 B,2 | [A,C]4 A,4 | [E,B,]4 [^G,B,]4 | [E,B,]8 |"^F" A,4 [CE]4 | A,4 C4 | %46
w: ||||||
 [A,F]4 C2 E2 | [B,D]4 [A,C]4 | [CD]2 B,A, [B,D]2 G,2 |"^G" [CE]4 E,4 | [G,,D,]4 [A,,C,]4 | %51
w: |||||
 [F,A,]6 E,2 |"^(   )" [D,F,]4"^(   )" [A,,C,]4 | B,,4 E,4 | [G,,D,]4 [G,B,]4 | %55
w: ||||
"^(    )""^(    )""^H" [A,,C,E,A,]4 G,4 | [E,C]4 E2 B,2 | [A,D]4 [E,C]4 | [D,F,A,F]4 C,2 E2 | %59
w: ||||
 [F,CD]2 B,2 [A,C]2 E,2 | [G,,D,G,B,]4 [E,C]4 | [G,C]4 [G,B,]4 | [C,G,C]8 |"^I" G8 | G8 | [CE]8 | %66
w: |||||||
 C8 | G,4 G4 | G8 | [_B,D]8 | [_B,D]4 A,2 G,2 | [^F,A,D]2 G,2 [A,D]2 E2 | [A,F]2 D2 [A,F]4 | %73
w: |||||||
 [A,F]4 E4 | [F,A,E]4 D2 [B,D]2 | [CE]2 A,2 [CE]4 |"^J" [E,C]4 _B,4 | A,4 A,4 | [C,G,]4 C4 | %79
w: ||||||
"^K" A8 | [A,A]8 | [D^F]4 D,2 E,2 | [^F,A,D]2 G,2 A,2 F,2 | [G,B,]4 G4 | G4 [DF]4 | E2 C2 [CE]4 | %86
w: |||||||
 [G,B,D]4 [G,B,D]4 |"^L" [C,G,C]4 [F,C]4 | [E,C]4 B,2 G,2 | [D,G,]4 [D,^F,]2 A,2 | G,6 A,2 | %91
w: |||||
 [E,B,]2 D,2 A,2 D,2 | D,4 [^C,G,]4 | [D,G,]4 [D,F,A,D]4 | [E,D]2 C2 [E,C]4 | [G,,D,G,C]4 [G,B,]4 | %96
w: |||||
"^\nM" [C,G,C]4 E,4 | [G,C]2 F,2 [C,G,]4 | A,4 [A,C]4 | G,2 D2 [CE]4 | [A,F]4 [DF]4 | D4 D4 | %102
w: |||* 0 *|||
"^N" [G,B,D]4 G,2 A,2 | [B,G]2 G,2 D4 | G2 C2 [CG]4 | [CF]4 [B,F]4 |"^O" [CE]4 G,,4- | %107
w: |||||
 G,,2 F,,2 G,,4 | A,,4 C,4- | C,2 D,2 E,4 | [C,G,]4 [G,,D,]2 C,2 |"^P" [G,,D,]2 A,,2 B,,2 C,2 | %112
w: |||||
 D,2 E,2 F,2 G,2 | [F,A,]6 E,2 | D,2 C,2 [C,G,]4 | [C,F,]4 B,,4 |"^Q" [C,E,]4 [C,E,C]4- | %117
w: |||||
 [C,E,C]2 D2 [CE]4 | G4 [CG]4 | [CD]4- [CD]3 B,/A,/ |"^R" [B,D]4 G,4 | [E,G,]4 [A,E]2 B,2 | %122
w: |||||
 [CE]2 F2 [B,G]4 | [A,A]2 G,2 A,2 B,2 | C2 A2 [CG]4 | [F,A,F]4 [B,D]4 |"^S" [E,CG]4 G,2 F2 | %127
w: |||||
 E2 A,2 [G,B,D]2 E2 | [A,F]4 [CE]2 A,2 | [CE]4 [G,B,]4 |"^T" [F,A,]4 C4 | %131
w: ||||
 E,2"^(No slur in original)" (D2 E2) G,2 | G2 A,2 [B,D]4 | [A,F]4 [C,E,CE]4 |"^U" C,2 D,2 [E,C]4 | %135
w: ||||
 [G,B,]4 D,4 | [F,A,]4 [C,E,CE]2 D,2 | E,2 F2 G4 | A2 F,2 [A,A]4- | [A,A]2 B,2 [CG]4 | %140
w: |||4 2 *||
 [DG]4 [D^F]4 |"^V" [DG]4 [CE]4 | [B,G]4 G,2 A,2 | B,2 G,2 D4 | G,2 C2 G4 | C2 F2 [G,B,D]4 | %146
w: ||||||
 !fermata![C,G,CE]8 |] %147
w: |
V:2
 x8 | x8 | x8 | x8 | x8 | x8 | x8 | x8 | x8 | x8 | x8 | x8 | x8 | x8 | x8 | x8 | x8 | x8 | x8 | %19
w: |||||||||||||||||||
 x8 | x8 | x8 | x8 | x8 | x8 | x8 | x8 | x8 | x8 | x8 | x8 | x4 (A,2 G,2) | (A,2 B,2) x4 | x8 | %34
w: |||||||||||||0 *||
 x8 | x8 | x8 | x8 | x8 | x8 | x8 | x4 A,4 | x8 | x8 | A,4 x4 | x8 | x8 | x8 | x8 | x8 | x8 | x8 | %52
w: ||||||||||||||||||
 x8 | x8 | x8 | x8 | x8 | x8 | x8 | x8 | x8 | x8 | x8 | x8 | x8 | x8 | x8 | x8 | x8 | x8 | x8 | %71
w: |||||||||||||||||||
 x8 | x8 | x8 | x8 | x8 | x8 | A,4 A,4 | x8 | x8 | x8 | x8 | x8 | x8 | x8 | x8 | x8 | x8 | x8 | %89
w: ||||||||||||||||||
 x8 | x8 | x8 | x8 | x8 | x8 | x8 | x8 | x8 | A,4 x4 | x8 | x8 | D4 A,4 | x8 | x8 | x8 | x8 | x8 | %107
w: ||||||||||||||||||
 x8 | x8 | x8 | x8 | x8 | x8 | x8 | x8 | x8 | x8 | x8 | x8 | x8 | x8 | x8 | x8 | x8 | x8 | x8 | %126
w: |||||||||||||||||||
 x8 | x8 | x8 | x8 | x8 | x8 | x8 | x8 | x8 | x8 | x8 | x8 | x8 | x8 | x8 | x8 | x8 | x4 D4 | x8 | %145
w: |||||||||||||||||||
 x8 | x8 |] %147
w: ||
V:3
 z8 | [C,,G,,]8 | [F,,A,,]8 | [F,,A,,]4 [E,,G,,]4 | [F,,A,,]6 G,,2 | [F,,A,,C,]4 [A,,C,]4 | %6
w: ||||||
 [G,,C,]4 B,,2 A,,2 | [G,,B,,]6 A,,2 | [G,,B,,]2 C,2 [G,,D,]2 A,,2 | [D,,B,,]2 C,2 D,2 E,,2 | %10
w: ||||
 F,,2 G,,2 [A,,C,]4 | [G,,C,]4 [G,,B,,]4 | [C,,C,]4 [C,G,]4 | [C,E,]4 C,4 | [F,A,]8 | %15
w: |||||
 [F,A,]4 [E,G,]4 | [F,A,]6 G,2 | A,4 C4 | [G,C]4 B,2 A,2 | [G,B,]8 | [G,A,]4 [^F,A,]4 | %21
w: ||||||
 [G,B,]2 C2 [D,F,A,D]2 E,2 | [F,A,D]2 G,2 [A,C]4 | [G,,D,G,]2 F,2 [G,,D,]4 | [C,,G,,C,G,]4 C,,4 | %25
w: ||||
 [C,,C,]4 C,4 | [F,,C,]8 | [F,,A,,]4 [F,,A,,]4 | D,,2 D,2 [G,,D,]4 | D,,4 D,2 D,,2 | %30
w: |||||
 [G,,D,]4 B,,2 C,2 | D,2 E,2 F,2 G,2 | [F,A,]2"^(   )" [E,G,]2"^*" [C,G,]4 | [D,F,]4 D,4 | %34
w: ||||
 [C,G,]4 C,,4 | C,4 C,,4 | [C,E,]4 C,,4 | [F,,C,]8 | [G,,D,]4 [G,,D,]4 | [G,,G,]8 | %40
w: ||||||
 [A,,F,]4 [A,,E,]4 | A,,2 D,2 C,2 A,,2 | [E,,B,,]4 E,4 | E,,4 E,4 | %44
w: ||||
"^(   )" [D,F,]4"^(   )" [G,E]4 | [F,A,]6 E,2 | D,4 C,4 | G,4 A,4 | G,4 G,,4 | [C,G,]4 C,,4 | %50
w: ||||||
 G,,4 [A,,E,]4 | D,2 F,,2 C,4 | A,4 F,,2 E,2 | [G,,D,]4 [G,,C,]4 | [C,D,]4 [B,,D,]4 | %55
w: |||||
 [C,,C,]6 B,,2 | [A,,E,]4 [E,,G,,]4 | [F,,A,,]4 [A,,C,]4 | F,,4 A,,4 | F,,8 | %60
w: |||||
 [G,,G,]2 D,2 [G,,G,]4- | [G,,G,]2 F,2 [G,,D,]4 | [C,,C,]8 | [C,,C,]8 | [C,G,]8 | G,8 | [C,,C,]8 | %67
w: |||||||
 [G,,D,]4 E,4 | [G,,D,G,_B,]6"_* (Notes in parentheses not in original)" A,2 | G,2 F,2 [G,,D,G,]4 | %70
w: 3 4|||
 [D,G,]4 ^F,2 E,2 | D,4 D,,4 | D,6 E,2 | F,2 D,2 [^C,E,]4 | D,4 D,4 | [A,,E,]6 F,2 | %76
w: ||||||
 [C,G,]2 E,2 G,4 | C,2 F,2 [F,A,]2 B,2 | [C,F,C]4 [C,E,]4 | [F,A,]4 F,,4 | [F,,A,,]4 F,,4 | D,,8 | %82
w: ||||||
 D,4 D,,4 | [G,,D,]6 A,,2 | B,,2 C,2 D,2 B,,2 | [C,G,]4 C,,4 | [G,,D,]4 G,,4 | G,4 A,4- | %88
w: ||||||
 A,2 G,2 G,4 | A,4 D,4 | D,4 C,4 | [G,,B,,]4 D,2 F,,2 | [E,,G,,]6 A,,2 | [D,,B,,]4 A,,4 | %94
w: ||||||
 [E,,G,,]4 C,,4 | G,,2 F,2 [G,,D,]4 | [C,E,]4 C,,4 | C,2 D,2 [C,E,]4 | [F,A,]4 F,,4 | C,4 C,,4 | %100
w: ||||||
 D,,4 D,4 | D,2 E,2 ^F,2 D,2 | G,8 | G,4 F,4 | E,4 D,2 C,2 | [D,A,]4 [D,F,]4 | [C,G,]4 C,,4- | %107
w: |||||||
 C,,2 D,,2 E,,4 | F,,8 | C,,8 | C,4 B,,2 A,,2 | B,,4 G,,2 A,,2 | B,,2 C,2 D,2 D,,2- | %113
w: ||||||
 D,,2 E,,2 F,,4 | F,,2 E,,2 C,,4 | D,,8 | C,,8 | [C,,C,]4 [C,,C,]4- | [C,,C,]2 D,2 E,4 | G,4 G,,4 | %120
w: |||||||
 [G,,D,]2 [A,,D,]2 [B,,D,]4 | [C,E,]6 B,,2 | [A,,C,]2 D,2 [G,,E,]4 | [F,A,]4 F,,4 | %124
w: ||||
 C,2 D,2 E,2"^(No ties or slurs in original)" x2 | C,4 [D,,B,,]4 | [C,,C,]8 | C,4 B,,4 | %128
w: ||||
 [A,,C,]4 A,,4- | A,,4 G,,4 | F,,2 G,,2 A,,2 [B,,D,]2 | %131
w: |||
 [C,E,]2 F,2 [C,G,]2"^(   )""^(Pitch is A in original)" E,2 | [G,,D,]4 G,,4 | [A,,C,]6 B,,2 | %134
w: |||
 C,4 [A,,C,]4 | [G,,D,]8 | [A,,C,]8 | [A,,C,]2 D,2 [G,,E,]4 | [F,,C,F,]4 D,2 D,,2 | F,,4 E,,4 | %140
w: 0 *||||||
 [D,,B,,]4 A,,4 | G,,2 G,2 G,,2 A,,2 | ([B,,D,]2 G,,2) [G,,E,]4 | [G,,D,]4 (G,2 A,2) | %144
w: ||||
 B,2 G,2 ([G,,D,]2 C,2) | [G,,D,]4 [G,,D,]4 | !fermata![C,,C,E,]8 |] %147
w: * * 1 0|||
V:4
 x8 | x8 | x8 | x8 | x8 | x8 | x8 | x8 | x8 | x8 | x8 | x8 | x8 | x8 | x8 | x8 | x8 | A,4 A,4 | %18
 x8 | x8 | x8 | x8 | x8 | x8 | x8 | x8 | x8 | x8 | x8 | x8 | x8 | x8 | x8 | x8 | x8 | x8 | x8 | %37
 x8 | x8 | x8 | x8 | x8 | x4 E,4 | x8 | x8 | x8 | x8 | x8 | x8 | x8 | x8 | x8 | x8 | x8 | x8 | x8 | %56
 x8 | x8 | x8 | x8 | x8 | x8 | C,8 | x8 | x8 | x8 | x8 | x8 | x8 | x8 | x8 | x8 | x8 | x8 | x8 | %75
 x8 | x8 | x8 | x8 | x8 | x8 | x8 | x8 | x8 | x8 | x8 | x8 | x8 | x8 | x8 | x8 | x8 | x8 | x8 | %94
 x8 | x8 | x8 | x8 | x8 | C,4 x4 | x8 | x8 | x8 | x8 | x8 | x8 | x8 | x8 | x8 | x8 | x8 | x8 | x8 | %113
 x8 | x8 | x8 | x8 | x8 | x8 | x8 | x8 | C,6 x2 | x8 | x8 | x6 ([E,,C,-]2 | D,,4) x4 | x8 | x8 | %128
 x8 | x8 | x8 | x8 | x8 | x8 | x8 | x8 | x8 | x8 | x8 | x8 | x8 | x8 | x8 | x8 | x8 | x8 | C,8 |] %147

